icons/smarty.svg

<svg width="16" height="16" viewBox="0 0 16 16" fill="none" xmlns="http://www.w3.org/2000/svg">
<path fill-rule="evenodd" clip-rule="evenodd" d="M10 10.2422C11.206 9.43496 12 8.06021 12 6.5C12 4.01472 9.98528 2 7.5 2C5.01472 2 3 4.01472 3 6.5C3 8.06021 3.79401 9.43496 5 10.2422V12H10V10.2422ZM9 13V14H6V13H9ZM11 6.5C11 7.8962 10.1825 9.10145 9 9.66318V11H6V9.66318C4.81753 9.10145 4 7.8962 4 6.5C4 4.567 5.567 3 7.5 3C9.433 3 11 4.567 11 6.5ZM9.35356 6.35355L8.00001 7.70711L7.00001 6.70711L6.35356 7.35355L5.64645 6.64645L7.00001 5.29289L8.00001 6.29289L8.64645 5.64645L9.35356 6.35355Z" fill="#F4BF36"/>
</svg>

<svg xmlns="http://www.w3.org/2000/svg" width="16" height="16" fill="none"><path fill="#F4BF36" fill-rule="evenodd" d="M10 10.242a4.5 4.5 0 1 0-5 0V12h5v-1.758ZM9 13v1H6v-1h3Zm2-6.5a3.5 3.5 0 0 1-2 3.163V11H6V9.663A3.5 3.5 0 1 1 11 6.5Zm-1.646-.146L8 7.707l-1-1-.646.647-.708-.708L7 5.293l1 1 .646-.647.708.708Z" clip-rule="evenodd"/></svg>
